!!!OTL: Duncan Gray 
!!!id: HA034
**kern
*clefF4
*k[f#]
*G:
*M2/2
{8d
8g
8f#
8g
8a
8b
4f#}
=2yy
{8.g
16g
8.a
16cc
8b
8g
4g}
=3yy
{8d
8g
8f#
8g
8a
8b
4f#}
=4yy
{8.g
16g
16a
16b
16cc
16a
8b
8g
4g}
=5yy
{8b
8dd
8dd
16cc
16b
8cc
8cc
4cc}
=6yy
{8b
16cc
16b
8a
8g
8f#
8e
4d}
=7yy
{8d
8g
8f#
8g
8a
8b
4f#}
=8yy
{8.g
16g
8.a
16cc
8b
8g
4g}
==
*-
!!!minrhy: 16
!!!meter: 2/2 
!!!cut: Duncan Gray 
!!!key: HA034  16  G 2/2 
!!!bem: Vorschlge
!!!fog: a--b--a--bv-c--d--a--b--
!! Haydn: Volksliedbearbeitungen, Bd1
